X:31
T:O the Bonny Fisher Lad
Z:Jack Campin, http://www.campin.me.uk/
S:Northumbrian Minstrelsy
M:C
L:1/8
Q:1/4=100
K:B Minor
P:Chorus
z|A F d B A  F  G \
E|A F d B A  F  B2|
  A F d B A  F  G \
E|F E D E F ^A HB|]
P:Verse
B|c e d f F  A  G \
E|c e d f F ^A  B
B|c e d f F  A  G \
E|A F D E F ^A  B||

